launcher/android/assets/skins/day/svg/multi-start.svg

<svg enable-background="new 0 0 220.00 220.00" height="220" viewBox="0 0 220 220" width="220" xmlns="http://www.w3.org/2000/svg" xmlns:xlink="http://www.w3.org/1999/xlink"><linearGradient id="a" gradientUnits="objectBoundingBox" x1="-.0487922" x2="1.04879" y1=".500001" y2=".499999"><stop offset=".00925926" stop-color="#c0c0c0"/><stop offset=".197949" stop-color="#8b8b8b" stop-opacity=".501961"/><stop offset=".421296" stop-color="#575757" stop-opacity="0"/><stop offset=".611111" stop-color="#626262" stop-opacity="0"/><stop offset="1" stop-color="#c0c0c0" stop-opacity=".4"/></linearGradient><filter id="b" filterUnits="userSpaceOnUse"><feGaussianBlur stdDeviation="1.88976"/></filter><linearGradient id="c"><stop offset=".00462963" stop-color="#b24e04"/><stop offset=".660537" stop-color="#d06515"/><stop offset=".99537" stop-color="#ee7c27"/></linearGradient><linearGradient id="d" gradientTransform="matrix(-.999375874701 -.035325076997 .035325076997 -.999375874701 1.970747599367 1.345615271139)" gradientUnits="objectBoundingBox" x1=".997261" x2="2.03921" xlink:href="#c" y1=".655398" y2=".655398"/><linearGradient id="e" gradientUnits="objectBoundingBox" x1="-.0487919" x2="1.04879" y1=".5" y2=".5"><stop offset="0" stop-color="#c0c0c0" stop-opacity="0"/><stop offset=".19505" stop-color="#989898" stop-opacity="0"/><stop offset=".425926" stop-color="#707070" stop-opacity="0"/><stop offset=".787037" stop-color="#6c6c6c" stop-opacity="0"/><stop offset=".986111" stop-color="#b9b9b9" stop-opacity=".6"/></linearGradient><linearGradient id="f" gradientTransform="matrix(-.999375874701 -.035325076997 .035325076997 -.999375874701 1.97074510544 1.345643227076)" gradientUnits="objectBoundingBox" x1=".99726" x2="2.03922" xlink:href="#c" y1=".655412" y2=".655412"/><g stroke-linejoin="bevel"><path d="m25.8597 46.8516 162.0003-.3023v13.2092l-161.6989.2159z" fill="#ffde19" stroke="#000" stroke-width="5"/><path d="m185.901 46.9425 30-18.9652v13.2499l-29.928 18.8383z" fill="#ffde19" stroke="#000" stroke-width="5"/><path d="m65.1513 27.9744 151.7497-1-29.596 20.1226-158.6537-.6224z" fill="#ffde19" stroke="#000" stroke-width="5"/><path d="m183.901 60.9746 29.792-16.863v47.6668l-29.792 19.6966z" fill="#d66919" stroke="#000" stroke-linecap="square" stroke-width="5"/><path d="m36.2764 60.4751h146.875v51.25h-146.875z" fill="#d66919" stroke="#000" stroke-linecap="square" stroke-width="5"/><path d="m88.1054 138.134 90.3336-50.4997v47.6667l-90.3336 52.833z" fill="#d66919" stroke="#000" stroke-linecap="square" stroke-width="5"/><path d="m8.10538 135.301h79.33332l.0416 52.958-62.2499.25-10.75-3-6.25002-9z" fill="#d66919" stroke="#000" stroke-linecap="square" stroke-width="5"/><path d="m76.4786 111.377c33.0004-15.7354 65.8584-15.6853 73.3904.112 7.533 15.797-13.113 41.358-46.113 57.094-33.0007 15.735-65.8588 15.685-73.3912-.112-7.5323-15.797 13.1139-41.36 46.1138-57.094z" fill="url(#a)" filter="url(#b)" stroke-linecap="square" stroke-width=".2"/></g><path d="m2.02206 122.384 89.58334-.292v12.75l-89.41668.209z" fill="#ffde19" stroke="#000" stroke-width="5"/><path d="m1.35538 122.551 98.21492-52.7286 80.7847-.4796-92.2212 53.2502z" fill="#ffde19" stroke="#000" stroke-width="5"/><path d="m54.0263 40.8846 125.4167-.1183 13.917-9.9165-123.2503 1.2498z" fill="url(#d)" stroke-linecap="square" stroke-linejoin="bevel" stroke-width=".2"/><path d="m92.6887 121.217 90.3753-53.3746v15.5l-90.3753 51.5416z" fill="#ffde19" stroke="#000" stroke-linecap="square" stroke-linejoin="bevel" stroke-width="5"/><path d="m98.6332 101.364c32.9998-15.7346 65.8588-15.6845 73.3908.112 7.532 15.797-13.113 41.359-46.114 57.095-33 15.735-65.8582 15.685-73.3906-.112-7.5323-15.797 13.1139-41.36 46.1138-57.095z" fill="url(#e)" filter="url(#b)" stroke-linecap="square" stroke-linejoin="bevel" stroke-width=".2"/><path d="m27.647 134.842 46.5.25-16.5 18h-43.75z" fill="#ffde19" stroke="#000" stroke-linejoin="bevel" stroke-width="5"/><path d="m49.818 110.058 37.0833-.083 56.3337-31.3337-38.667.3333z" fill="url(#f)" stroke-linecap="square" stroke-linejoin="bevel" stroke-width=".2"/></svg>

﻿<?xml version="1.0" encoding="utf-8"?>
<!DOCTYPE svg PUBLIC "-//W3C//DTD SVG 1.1//EN" "http://www.w3.org/Graphics/SVG/1.1/DTD/svg11.dtd">
<svg xmlns="http://www.w3.org/2000/svg" xmlns:xlink="http://www.w3.org/1999/xlink" version="1.1" baseProfile="full" width="220" height="220" viewBox="0 0 220.00 220.00" enable-background="new 0 0 220.00 220.00" xml:space="preserve">
	<path fill="#FFDE19" fill-opacity="1" stroke-width="5" stroke-linejoin="bevel" stroke="#000000" stroke-opacity="1" d="M 25.8597,46.8516L 187.86,46.5493L 187.86,59.7585L 26.1611,59.9744L 25.8597,46.8516 Z "/>
	<path fill="#FFDE19" fill-opacity="1" stroke-width="5" stroke-linejoin="bevel" stroke="#000000" stroke-opacity="1" d="M 185.901,46.9425L 215.901,27.9773L 215.901,41.2272L 185.973,60.0655L 185.901,46.9425 Z "/>
	<path fill="#FFDE19" fill-opacity="1" stroke-width="5" stroke-linejoin="bevel" stroke="#000000" stroke-opacity="1" d="M 65.1513,27.9744L 216.901,26.9744L 187.305,47.097L 28.6513,46.4746L 65.1513,27.9744 Z "/>
	<path fill="#D66919" fill-opacity="1" stroke-width="5" stroke-linecap="square" stroke-linejoin="bevel" stroke="#000000" stroke-opacity="1" d="M 183.901,60.9746L 213.693,44.1116L 213.693,91.7784L 183.901,111.475L 183.901,60.9746 Z "/>
	<rect x="36.2764" y="60.4751" fill="#D66919" fill-opacity="1" stroke-width="5" stroke-linecap="square" stroke-linejoin="bevel" stroke="#000000" stroke-opacity="1" width="146.875" height="51.25"/>
	<path fill="#D66919" fill-opacity="1" stroke-width="5" stroke-linecap="square" stroke-linejoin="bevel" stroke="#000000" stroke-opacity="1" d="M 88.1054,138.134L 178.439,87.6343L 178.439,135.301L 88.1054,188.134L 88.1054,138.134 Z "/>
	<path fill="#D66919" fill-opacity="1" stroke-width="5" stroke-linecap="square" stroke-linejoin="bevel" stroke="#000000" stroke-opacity="1" d="M 8.10538,135.301L 87.4387,135.301L 87.4803,188.259L 25.2304,188.509L 14.4804,185.509L 8.23038,176.509L 8.10538,135.301 Z "/>
	<linearGradient id="SVGID_Fill1_" gradientUnits="objectBoundingBox" x1="-0.0487922" y1="0.500001" x2="1.04879" y2="0.499999">
		<stop offset="0.00925926" stop-color="#C0C0C0" stop-opacity="1"/>
		<stop offset="0.197949" stop-color="#8B8B8B" stop-opacity="0.501961"/>
		<stop offset="0.421296" stop-color="#575757" stop-opacity="0"/>
		<stop offset="0.611111" stop-color="#626262" stop-opacity="0"/>
		<stop offset="1" stop-color="#C0C0C0" stop-opacity="0.4"/>
	</linearGradient>
	<filter id="Filter_GaussianBlur1_" filterUnits="userSpaceOnUse">
		<feGaussianBlur stdDeviation="1.88976"/>
	</filter>
	<path fill="url(#SVGID_Fill1_)" stroke-width="0.2" stroke-linecap="square" stroke-linejoin="bevel" filter="url(#Filter_GaussianBlur1_)" d="M 76.4786,111.377C 109.479,95.6416 142.337,95.6917 149.869,111.489C 157.402,127.286 136.756,152.847 103.756,168.583C 70.7553,184.318 37.8972,184.268 30.3648,168.471C 22.8325,152.674 43.4787,127.111 76.4786,111.377 Z "/>
	<path fill="#FFDE19" fill-opacity="1" stroke-width="5" stroke-linejoin="miter" stroke="#000000" stroke-opacity="1" d="M 2.02206,122.384L 91.6054,122.092L 91.6054,134.842L 2.18872,135.051L 2.02206,122.384 Z "/>
	<path fill="#FFDE19" fill-opacity="1" stroke-width="5" stroke-linejoin="miter" stroke="#000000" stroke-opacity="1" d="M 1.35538,122.551L 99.5703,69.8224L 180.355,69.3428L 88.1338,122.593L 1.35538,122.551 Z "/>
	<linearGradient id="SVGID_Fill2_" gradientUnits="objectBoundingBox" x1="0.997261" y1="0.655398" x2="2.03921" y2="0.655398" gradientTransform="rotate(182.024399 0.997261 0.655398)">
		<stop offset="0.00462963" stop-color="#B24E04" stop-opacity="1"/>
		<stop offset="0.660537" stop-color="#D06515" stop-opacity="1"/>
		<stop offset="0.99537" stop-color="#EE7C27" stop-opacity="1"/>
	</linearGradient>
	<path fill="url(#SVGID_Fill2_)" stroke-width="0.2" stroke-linecap="square" stroke-linejoin="bevel" d="M 54.0263,40.8846L 179.443,40.7663L 193.36,30.8498L 70.1097,32.0996L 54.0263,40.8846 Z "/>
	<path fill="#FFDE19" fill-opacity="1" stroke-width="5" stroke-linecap="square" stroke-linejoin="bevel" stroke="#000000" stroke-opacity="1" d="M 92.6887,121.217L 183.064,67.8424L 183.064,83.3424L 92.6887,134.884L 92.6887,121.217 Z "/>
	<linearGradient id="SVGID_Fill3_" gradientUnits="objectBoundingBox" x1="-0.0487919" y1="0.5" x2="1.04879" y2="0.5">
		<stop offset="0" stop-color="#C0C0C0" stop-opacity="0"/>
		<stop offset="0.19505" stop-color="#989898" stop-opacity="0"/>
		<stop offset="0.425926" stop-color="#707070" stop-opacity="0"/>
		<stop offset="0.787037" stop-color="#6C6C6C" stop-opacity="0"/>
		<stop offset="0.986111" stop-color="#B9B9B9" stop-opacity="0.6"/>
	</linearGradient>
	<filter id="Filter_GaussianBlur2_" filterUnits="userSpaceOnUse">
		<feGaussianBlur stdDeviation="1.88976"/>
	</filter>
	<path fill="url(#SVGID_Fill3_)" stroke-width="0.2" stroke-linecap="square" stroke-linejoin="bevel" filter="url(#Filter_GaussianBlur2_)" d="M 98.6332,101.364C 131.633,85.6294 164.492,85.6795 172.024,101.476C 179.556,117.273 158.911,142.835 125.91,158.571C 92.91,174.306 60.0518,174.256 52.5194,158.459C 44.9871,142.662 65.6333,117.099 98.6332,101.364 Z "/>
	<path fill="#FFDE19" fill-opacity="1" stroke-width="5" stroke-linejoin="bevel" stroke="#000000" stroke-opacity="1" d="M 27.647,134.842L 74.147,135.092L 57.647,153.092L 13.897,153.092L 27.647,134.842 Z "/>
	<linearGradient id="SVGID_Fill4_" gradientUnits="objectBoundingBox" x1="0.99726" y1="0.655412" x2="2.03922" y2="0.655412" gradientTransform="rotate(182.024399 0.997260 0.655412)">
		<stop offset="0.00462963" stop-color="#B24E04" stop-opacity="1"/>
		<stop offset="0.660537" stop-color="#D06515" stop-opacity="1"/>
		<stop offset="0.99537" stop-color="#EE7C27" stop-opacity="1"/>
	</linearGradient>
	<path fill="url(#SVGID_Fill4_)" stroke-width="0.2" stroke-linecap="square" stroke-linejoin="bevel" d="M 49.818,110.058L 86.9013,109.975L 143.235,78.6413L 104.568,78.9746L 49.818,110.058 Z "/>
</svg>
